static/assets/template/assets/img/icons/essential/detailed/Glove.svg

<svg height="136" viewBox="0 0 106 136" width="106" xmlns="http://www.w3.org/2000/svg"><g fill="none" fill-rule="evenodd" transform="translate(1 2)"><path d="m95 117.4c0 4.1-.7 8.1-8.3 10.6s-22.7 3.4-22.7 3.4l-7-6.1-6.3 7.4s-10.6-.4-19.6-2.3c-9-1.8-10.6-5.6-11.7-13-.9-6-.2-12.2.7-19.3.2-1.7.4-3.4.6-5.1 0-.3.1-.6.1-.9l35 7.4 32.8-7.9c.9 2.5 1.6 4.8 2.3 6.9 3.1 9.5 4.1 15.6 4.1 18.9z" fill-rule="nonzero"/><path d="m91 98.5c-2.5 1.4-5.5 2.7-8.9 3.9-14.4 4.9-32.4 9.4-48.8 2-4.9-2.2-9.3-4.2-13.2-6.3.2-1.7.4-3.4.6-5.1 0-.3.1-.6.1-.9l35 7.4 32.8-7.9c1 2.5 1.8 4.8 2.4 6.9z" fill-rule="nonzero"/><path d="m100.7 49.1c2.6-4.3 2.9-9.8 2.7-16-.4-12.8-1.1-18.7-12.8-26.3-11.7-7.6-36-6.3-36-6.3-15.2.2-47.9-1.6-45.2 32-1 .6-1.8 1.4-2.7 2.4-5.8 6.7-7 12.4-4.5 31.3s13.3 23.2 29.7 30.6 34.4 2.9 48.8-2 20.7-11.9 20.7-20-.7-10.8-.7-24.7c0-.4 0-.7 0-1z" fill-rule="nonzero"/><path d="m100.9 53.5v.8c0 3.1 0 5.6.1 7.7.2 6.6.5 9.4.5 15 0 7.4-5.8 13.8-19.2 18.3-13.3 4.5-30 8.7-45.2 1.9-10.1-4.5-17.8-7.7-22.6-14.4-2.5-3.4-4.1-7.8-4.9-13.6-2.3-17.3-1.3-22.5 4.2-28.7.5-.6 1-1.1 1.6-1.5 10.7-2.9 39.9-2.2 45.7 5.9 6.3 8.9 2-1.4 2-1.4s1.8-6.2-8.3-8.7-29.6-6.9-38.2-4.8c1.1-7.5 4.7-12.3 9.5-15.4 3.7-2.4 8.2-3.8 12.8-4.6 7-1.2 14.3-1.1 19.4-1.1 0 0 22.5-1.2 33.3 5.8 4.2 2.7 6.8 5.2 8.5 7.8 2.7 4.3 3.1 9.1 3.3 16.3.1 4 0 7.6-.8 10.7-.4 1.4-1 2.7-1.7 4z" fill="#bad8ff" fill-rule="nonzero"/><path d="m103.2 36c0 16.5-5.4 16.4-5.4 25.3s-7 16.5-23 22-35.9 10.4-54.2 2.2c-2.2-1-4.3-1.9-6.2-2.8-2.5-3.4-4.1-7.8-4.9-13.6-2.3-17.3-1.3-22.5 4.2-28.7.5-.6 1-1.1 1.6-1.5 10.7-2.9 39.9-2.2 45.7 5.9 6.3 8.9 2-1.4 2-1.4s1.8-6.2-8.3-8.7-29.6-6.9-38.2-4.8c1.1-7.5 4.7-12.3 9.5-15.4 3.7-2.4 8.2-3.8 12.8-4.6 7-1.2 14.3-1.1 19.4-1.1 0 0 22.5-1.2 33.3 5.8 4.2 2.7 6.8 5.2 8.5 7.8 2.3 3.3 4.1 6.4 3.2 13.6z" fill-rule="nonzero"/><path d="m62.1 59s0 .1-.1.2c-.1-.1.1-.2.1-.2z" fill="#bad8ff" fill-rule="nonzero"/><path d="m100.9 53.4v.8c0 3.1 0 5.6.1 7.7h-.1c-24.1 10.1-36.7 3.1-36.7 3.1s-2 5.8-16.4 7.9c-16.9 2.5-24.4-3.4-23.4-8.4 0 0 1.7 1.6 8.4 3.2 6.2 1.5 9.9.6 18.5-.2 8-.7 10.4-7.2 10.8-8.3.3.1 1.8.4 7.3.7 9 .4 22.6-1.7 30.2-8.1 1.1-.9 2.1-1.7 2.9-2.4-.4 1.5-.9 2.8-1.6 4z" fill="#bad8ff" fill-rule="nonzero"/><g stroke-linecap="round" stroke-linejoin="round" stroke-width="3"><path d="m41.2.8c5-.3 9.7-.3 13.4-.3 0 0 24.3-1.3 36 6.3s12.4 13.5 12.8 26.3-1.3 22.3-20.5 25.4c-13.9 2.3-19 1.3-20.7.5"/><path d="m28.4 2.9c.2-.1.4-.1.7-.2"/><path d="m9.3 32.5c-1.2-14.7 4.4-22.6 12.4-26.9"/><path d="m59.2 37.6c2.8 2.6 4.5 6.4 4.6 12.1.2 17.8-16 18.7-22 18.9-4.9.2-9.9.4-16.7-4.4"/><path d="m100.7 49.1v.9c0 13.9.7 16.6.7 24.7s-6.3 15.1-20.7 20-32.4 9.4-48.8 2-27.2-11.7-29.7-30.6-1.3-24.5 4.5-31.3c5.8-6.7 14.4-5.2 27.4-3.8 5.1.5 10.7.8 15.7 2"/><path d="m57 125.2.5-20.6"/><path d="m19.6 102.7c-.6 5.2-.8 10-.1 14.6 1.1 7.4 2.7 11.2 11.7 13s19.6 2.2 19.6 2.2l1.8-2.2"/><path d="m88.7 91.6c4.7 13.5 6.3 21.7 6.3 25.8s-.7 8.1-8.3 10.6-22.7 3.4-22.7 3.4l-7-6.1"/><path d="m47.5 109.9 13.8 7.8"/><path d="m67.1 109.9-13.8 7.8"/></g></g></svg>

<?xml version="1.0" encoding="UTF-8"?>
<svg width="106px" height="136px" viewBox="0 0 106 136" version="1.1" xmlns="http://www.w3.org/2000/svg" xmlns:xlink="http://www.w3.org/1999/xlink">
    <!-- Generator: Sketch 51.2 (57519) - http://www.bohemiancoding.com/sketch -->
    <title>Glove</title>
    <desc>Created with Sketch.</desc>
    <defs></defs>
    <g id="Page-1" stroke="none" stroke-width="1" fill="none" fill-rule="evenodd">
        <g id="Glove" transform="translate(1.000000, 2.000000)">
            <path d="M95,117.4 C95,121.5 94.3,125.5 86.7,128 C79.1,130.5 64,131.4 64,131.4 L57,125.3 L50.7,132.7 C50.7,132.7 40.1,132.3 31.1,130.4 C22.1,128.6 20.5,124.8 19.4,117.4 C18.5,111.4 19.2,105.2 20.1,98.1 C20.3,96.4 20.5,94.7 20.7,93 C20.7,92.7 20.8,92.4 20.8,92.1 L55.8,99.5 L88.6,91.6 C89.5,94.1 90.2,96.4 90.9,98.5 C94,108 95,114.1 95,117.4 Z" id="Shape" class="fill-primary-400" fill-rule="nonzero"></path>
            <path d="M91,98.5 C88.5,99.9 85.5,101.2 82.1,102.4 C67.7,107.3 49.7,111.8 33.3,104.4 C28.4,102.2 24,100.2 20.1,98.1 C20.3,96.4 20.5,94.7 20.7,93 C20.7,92.7 20.8,92.4 20.8,92.1 L55.8,99.5 L88.6,91.6 C89.6,94.1 90.4,96.4 91,98.5 Z" id="Shape" class="fill-primary-600" fill-rule="nonzero"></path>
            <path d="M100.7,49.1 C103.3,44.8 103.6,39.3 103.4,33.1 C103,20.3 102.3,14.4 90.6,6.8 C78.9,-0.8 54.6,0.5 54.6,0.5 C39.4,0.7 6.7,-1.1 9.4,32.5 C8.4,33.1 7.6,33.9 6.7,34.9 C0.9,41.6 -0.3,47.3 2.2,66.2 C4.7,85.1 15.5,89.4 31.9,96.8 C48.3,104.2 66.3,99.7 80.7,94.8 C95.1,89.9 101.4,82.9 101.4,74.8 C101.4,66.7 100.7,64 100.7,50.1 C100.7,49.7 100.7,49.4 100.7,49.1 Z" id="Shape" class="fill-neutral" fill-rule="nonzero"></path>
            <path d="M100.9,53.5 L100.9,54.3 C100.9,57.4 100.9,59.9 101,62 C101.2,68.6 101.5,71.4 101.5,77 C101.5,84.4 95.7,90.8 82.3,95.3 C69,99.8 52.3,104 37.1,97.2 C27,92.7 19.3,89.5 14.5,82.8 C12,79.4 10.4,75 9.6,69.2 C7.3,51.9 8.3,46.7 13.8,40.5 C14.3,39.9 14.8,39.4 15.4,39 C26.1,36.1 55.3,36.8 61.1,44.9 C67.4,53.8 63.1,43.5 63.1,43.5 C63.1,43.5 64.9,37.3 54.8,34.8 C44.7,32.3 25.2,27.9 16.6,30 C17.7,22.5 21.3,17.7 26.1,14.6 C29.8,12.2 34.3,10.8 38.9,10 C45.9,8.8 53.2,8.9 58.3,8.9 C58.3,8.9 80.8,7.7 91.6,14.7 C95.8,17.4 98.4,19.9 100.1,22.5 C102.8,26.8 103.2,31.6 103.4,38.8 C103.5,42.8 103.4,46.4 102.6,49.5 C102.2,50.9 101.6,52.2 100.9,53.5 Z" id="Shape" fill="#BAD8FF" fill-rule="nonzero"></path>
            <path d="M103.2,36 C103.2,52.5 97.8,52.4 97.8,61.3 C97.8,70.2 90.8,77.8 74.8,83.3 C58.8,88.8 38.9,93.7 20.6,85.5 C18.4,84.5 16.3,83.6 14.4,82.7 C11.9,79.3 10.3,74.9 9.5,69.1 C7.2,51.8 8.2,46.6 13.7,40.4 C14.2,39.8 14.7,39.3 15.3,38.9 C26,36 55.2,36.7 61,44.8 C67.3,53.7 63,43.4 63,43.4 C63,43.4 64.8,37.2 54.7,34.7 C44.6,32.2 25.1,27.8 16.5,29.9 C17.6,22.4 21.2,17.6 26,14.5 C29.7,12.1 34.2,10.7 38.8,9.9 C45.8,8.7 53.1,8.8 58.2,8.8 C58.2,8.8 80.7,7.6 91.5,14.6 C95.7,17.3 98.3,19.8 100,22.4 C102.3,25.7 104.1,28.8 103.2,36 Z" id="Shape" class="fill-primary-100" fill-rule="nonzero"></path>
            <path d="M62.1,59 C62.1,59 62.1,59.1 62,59.2 C61.9,59.1 62.1,59 62.1,59 Z" id="Shape" fill="#BAD8FF" fill-rule="nonzero"></path>
            <path d="M100.9,53.4 L100.9,54.2 C100.9,57.3 100.9,59.8 101,61.9 C101,61.9 100.9,61.9 100.9,61.9 C76.8,72 64.2,65 64.2,65 C64.2,65 62.2,70.8 47.8,72.9 C30.9,75.4 23.4,69.5 24.4,64.5 C24.4,64.5 26.1,66.1 32.8,67.7 C39,69.2 42.7,68.3 51.3,67.5 C59.3,66.8 61.7,60.3 62.1,59.2 C62.4,59.3 63.9,59.6 69.4,59.9 C78.4,60.3 92,58.2 99.6,51.8 C100.7,50.9 101.7,50.1 102.5,49.4 C102.1,50.9 101.6,52.2 100.9,53.4 Z" id="Shape" fill="#BAD8FF" fill-rule="nonzero"></path>
            <path d="M41.2,0.8 C46.2,0.5 50.9,0.5 54.6,0.5 C54.6,0.5 78.9,-0.8 90.6,6.8 C102.3,14.4 103,20.3 103.4,33.1 C103.8,45.9 102.1,55.4 82.9,58.5 C69,60.8 63.9,59.8 62.2,59" id="Shape" class="stroke-primary" stroke-width="3" stroke-linecap="round" stroke-linejoin="round"></path>
            <path d="M28.4,2.9 C28.6,2.8 28.8,2.8 29.1,2.7" id="Shape" class="stroke-primary" stroke-width="3" stroke-linecap="round" stroke-linejoin="round"></path>
            <path d="M9.3,32.5 C8.1,17.8 13.7,9.9 21.7,5.6" id="Shape" class="stroke-primary" stroke-width="3" stroke-linecap="round" stroke-linejoin="round"></path>
            <path d="M59.2,37.6 C62,40.2 63.7,44 63.8,49.7 C64,67.5 47.8,68.4 41.8,68.6 C36.9,68.8 31.9,69 25.1,64.2" id="Shape" class="stroke-primary" stroke-width="3" stroke-linecap="round" stroke-linejoin="round"></path>
            <path d="M100.7,49.1 C100.7,49.4 100.7,49.7 100.7,50 C100.7,63.9 101.4,66.6 101.4,74.7 C101.4,82.8 95.1,89.8 80.7,94.7 C66.3,99.6 48.3,104.1 31.9,96.7 C15.5,89.3 4.7,85 2.2,66.1 C-0.3,47.2 0.9,41.6 6.7,34.8 C12.5,28.1 21.1,29.6 34.1,31 C39.2,31.5 44.8,31.8 49.8,33" id="Shape" class="stroke-primary" stroke-width="3" stroke-linecap="round" stroke-linejoin="round"></path>
            <path d="M57,125.2 L57.5,104.6" id="Shape" class="stroke-primary" stroke-width="3" stroke-linecap="round" stroke-linejoin="round"></path>
            <path d="M19.6,102.7 C19,107.9 18.8,112.7 19.5,117.3 C20.6,124.7 22.2,128.5 31.2,130.3 C40.2,132.1 50.8,132.5 50.8,132.5 L52.6,130.3" id="Shape" class="stroke-primary" stroke-width="3" stroke-linecap="round" stroke-linejoin="round"></path>
            <path d="M88.7,91.6 C93.4,105.1 95,113.3 95,117.4 C95,121.5 94.3,125.5 86.7,128 C79.1,130.5 64,131.4 64,131.4 L57,125.3" id="Shape" class="stroke-primary" stroke-width="3" stroke-linecap="round" stroke-linejoin="round"></path>
            <path d="M47.5,109.9 L61.3,117.7" id="Shape" class="stroke-primary" stroke-width="3" stroke-linecap="round" stroke-linejoin="round"></path>
            <path d="M67.1,109.9 L53.3,117.7" id="Shape" class="stroke-primary" stroke-width="3" stroke-linecap="round" stroke-linejoin="round"></path>
        </g>
    </g>
</svg>
